X:1
T:Ungdomsdröm
T:W. Peterson-Berger (1867-1942)
T:Text: W. P.-B.
T:Ungdomsdröm
T:©CPDL Edition may be freely distributed, duplicated, performed and recorded PA Aglert
T:©CPDL Edition may be freely distributed, duplicated, performed and recorded PA Aglert
T:©CPDL Edition may be freely distributed, duplicated, performed and recorded PA Aglert
T:©CPDL Edition may be freely distributed, duplicated, performed and recorded PA Aglert
T:©CPDL Edition may be freely distributed, duplicated, performed and recorded PA Aglert
T:©CPDL Edition may be freely distributed, duplicated, performed and recorded PA Aglert
C:W. Peterson-Berger (1867-1942)
Z:©CPDL Edition may be freely distributed, duplicated, performed and recorded
Z:PA Aglert
%%score [ 1 2 3 4 ]
L:1/8
Q:1/4=120
M:4/4
K:C
V:1 treble nm="S"
V:2 treble nm="A"
V:3 treble-8 nm="T"
V:4 bass nm="B"
V:1
"^Andante tranquillo"!p! A3 ^G A3 G |!<(! A2!<)! B2!>(! E4!>)! |!<(! A2 A!<)!c e2 (dc) | %3
w: 1.Sil- ver- vitt i|rym- den blå|sak- ta ett strö- moln *|
w: 2.Mol- net lyss ej|till min bön,|skif- tar sin hamn och *|
!>(! (c4!>)! B3) c | d3 c d3 c |!<(! d2!<)! e2!>(! c2 A2!>)! |!p!!<(! ^F2 ^EF!<)!!f!!>(! A3 G!>)! | %7
w: sim- * mar|högt upp ö- ver|jor- dens jäkt och|var- da- gens grå- a|
w: svin- * ner.|Snart är gång- en|all dess glans och|ing- en dess rum mer|
!p! B4!pp! c4 |!p! E2"^cresc." EE F3!<(! D | A2 A2!<)!!f! d4 |!mf! c2 Bc C3!>(! A!>)! | %11
w: tim- mar.|Än i min själ en|lyc- ko- dröm|drö- jer från ung- a|
w: fin- ner.|Kan- ske det föll som|luft- sval gråt|ned på en sko- gens|
!mf!!>(! A4 G4!>)! |!p!!<(! D2 EF G2 (EG)!<)! |!mf!!<(! A2 A2!<)!!f!!>(! _B3 A!>)! | %14
w: da- gar,|stil- la och klar, fast- *|än mitt liv allt|
w: tu- va,|dracks av en rot och *|sväl- ler snart som|
!p!!<(! D2 EF A3!<)!!>(! B!>)! |!p!!>(! E4!>)!!pp! E4 |!p! c3 B c3 B |!<(! c2!<)! d2!>(! B4!>)! | %18
w: mer föl- jer stri- dens|la- gar.|Lju- sa, vack- ra|som- mar- sky!|
w: saft i ett blå- bärs|dru- va.|Lju- sa, vack- ra|som- mar- sky!|
 A3 G A3 G |!<(! A2!<)! B2!>(! ^G4!>)! |!p!!>(! !courtesy!=G3 G ^F2 F2!>)! |!pp!!>(! G8!>)!!ppp! | %22
w: Var ej allt för|snar att fly|från min him- mels|rund!|
w: Hell- re än med|vin- den fly|dig åt jor- den|giv!|
!mf! c3 B c3 B | c2 d2!>(! B4!>)! |1!mf! A3 G A3 G |!>(! A2 B2 G4!>)! | %26
w: Lju- sa vack- ra|ung- doms- dröm!|Glid ej bort på|ti- dens ström!|
w: Lju- sa, vack- ra|ung- doms- dröm!|||
!p!!>(! !courtesy!=F3 F F2 F2!>)! |!mp!!>(! E8!>)! |!pp!!<(! E3 E ^F2!<)!!>(! F2!>)! | %29
w: Strå- la än en|stund!|Strå- la än en|
w: |||
 !fermata!^G8 :|2!f! d3 c d3 c || d2 e2 c4 |!mf! B3!>(! B c2 c2!>)! |!mp!!>(! A8!>)! | %34
w: stund!|Svinn men i en|tå- re- ström!|Dö och bliv till|liv!|
w: |||||
!p! A3"^rit."!>(! A [^GB]2 [GB]2!>)!!pp! | !fermata![A^c]8 |] %36
w: Dö och bliv till|liv!|
w: ||
V:2
!p! E3 E E3 E |!<(! E2!<)! E2!>(! D4!>)! |!<(! C2 C!<)!E F2 (FE) |!>(! F4!>)! F4 | A3 A A3 A | %5
w: 1.Sil- ver- vitt i|rym- den blå|sak- ta ett strö- moln *|sim- mar|högt upp ö- ver|
w: 2.Mol- net lyss ej|till min bön,|skif- tar sin hamn och *|svin- ner.|Snart är gång- en|
!<(! A2!<)! B2!>(! A2 E2!>)! |!p!!<(! ^D2 DD!<)!!f!!>(! D3 D!>)! |!p! ^D4!pp! D4 | %8
w: jor- dens jäkt och|var- da- gens grå- a|tim- mar.|
w: all dess glans och|ing- en dess rum mer|fin- ner.|
!p! !courtesy!=D2"^cresc." DD D3!<(! D | F2 F2!<)!!f! A4 |!mf! D2 DD!>(! F3 C!>)! | %11
w: Än i min själ en|lyc- ko- dröm|drö- jer från ung- a|
w: Kan- ske det föll som|luft- sval gråt|ned på en sko- gens|
!mf!!>(! ^C4 C4!>)! |!p!!<(! D2 DD D2 D2!<)! |!mf!!<(! ^C2 C2!<)!!f!!>(! =C3 C!>)! | %14
w: da- gar,|stil- la och klar, fast-|än mitt liv allt|
w: tu- va,|dracks av en rot och|sväl- ler snart som|
!p!!<(! !courtesy!=B,2 B,B,!<)! D3!>(! ^D!>)! |!p!!>(! E4!>)!!pp! E4 |!p! G3 G G3 G | %17
w: mer föl- jer stri- dens|la- gar.|Lju- sa, vack- ra|
w: saft i ett blå- bärs|dru- va.|Lju- sa, vack- ra|
!<(! G2!<)! A2!>(! G4!>)! | E3 E E3 E |!<(! E2!<)! F2!>(! E4!>)! |!p!!>(! E3 E E2 E2!>)! | %21
w: som- mar- sky!|Var ej allt för|snar att fly|från min him- mels|
w: som- mar- sky!|Hell- re än med|vin- den fly|dig åt jor- den|
!pp!!>(! ^D8!>)!!ppp! |!mf! E3 !courtesy!=D E3 D | E2 D2!>(! D4!>)! |1!mf! C3 B, C3 B, | %25
w: rund!|Lju- sa vack- ra|ung- doms- dröm!|Glid ej bort på|
w: giv!|Lju- sa, vack- ra|ung- doms- dröm!||
!>(! C2 B,2 E4!>)! |!p!!>(! C3 C D2 D2!>)! |!mp!!>(! B,8!>)! | %28
w: ti- dens ström!|Strå- la än en|stund!|
w: |||
!pp!!<(! E3 E [^DE]2!<)!!>(! [DE]2!>)! | !fermata!E8 :|2!f! F3 E F3 E || F2 E2 E4 | %32
w: Strå- la än en|stund!|Svinn men i en|tå- re- ström!|
w: ||||
!mf! ^D3!>(! D =D2 D2!>)! |!mp!!>(! (C4 ^C4)!>)! |!p! D3"^rit."!>(! D F2 F2!>)!!pp! | %35
w: Dö och bliv till|liv! *|Dö och bliv till|
w: |||
 !fermata!E8 |] %36
w: liv!|
w: |
V:3
!p! c3 B c3 B |!<(! c2!<)! d2!>(! B4!>)! |!<(! e2 e!<)!c A4- | A2!>(! (BA)!>)! ^G3 A | f3 e f3 e | %5
w: 1.Sil- ver- vitt i|rym- den blå|sak- ta ett strö-|* moln * sim- mar|högt upp ö- ver|
w: 2.Mol- net lyss ej|till min bön,|skif- tar sin hamn|* och * svin- ner.|Snart är gång- en|
!<(! f2!<)! e2!>(! e2 c2!>)! |!p!!<(! c2 cc!<)!!f! c3!>(! c!>)! |!p! A4!pp! A4 | %8
w: jor- dens jäkt och|var- da- gens grå- a|tim- mar.|
w: all dess glans och|ing- en dess rum mer|fin- ner.|
!p! ^G2"^cresc." GG A3!<(! B | c2!<)! c2!f! f4 |!mf! f2 ff!>(! d3 A!>)! |!mf!!>(! _B4 B4!>)! | %12
w: Än i min själ en|lyc- ko- dröm|drö- jer från ung- a|da- gar,|
w: Kan- ske det föll som|luft- sval gråt|ned på en sko- gens|tu- va,|
!p!!<(! _B2 BB B2 B2!<)! |!mf!!<(! G2 G2!<)!!f!!>(! ^F3 F!>)! |!p!!<(! G2 Bd!<)! B3!>(! A!>)! | %15
w: stil- la och klar, fast-|än mitt liv allt|mer föl- jer stri- dens|
w: dracks av en rot och|sväl- ler snart som|saft i ett blå- bärs|
!p!!>(! ^G4!>)!!pp! e4 |!p! e3 d e3 d |!<(! e2!<)! f2!>(! d4!>)! | c3 B c3 B | %19
w: la- gar.|Lju- sa, vack- ra|som- mar- sky!|Var ej allt för|
w: dru- va.|Lju- sa, vack- ra|som- mar- sky!|Hell- re än med|
!<(! c2!<)! d2!>(! B4!>)! |!p!!>(! B3 B ^A2 A2!>)! |!pp!!>(! (!courtesy!=A4!>)! B4)!ppp! | %22
w: snar att fly|från min him- mels|rund! *|
w: vin- den fly|dig åt jor- den|giv! *|
!mf! G3 G G3 G | G2 A2!>(! G4!>)! |1!mf! E3 E E3 E |!>(! e2 ^f2 B4!>)! |!p!!>(! A3 A A2 A2!>)! | %27
w: Lju- sa vack- ra|ung- doms- dröm!|Glid ej bort på|ti- dens ström!|Strå- la än en|
w: Lju- sa, vack- ra|ung- doms- dröm!||||
!mp!!>(! ^G8!>)! |!pp!!<(! A3 A c2!<)!!>(! c2!>)! | !fermata!B8 :|2!f! A3 A A3 A || A2 B2 A4 | %32
w: stund!|Strå- la än en|stund!|Svinn men i en|tå- re- ström!|
w: |||||
!mf! A3!>(! A ^G2 G2!>)! |!mp!!>(! (A4 !courtesy!=G4)!>)! |!p! F3"^rit."!>(! F A2 A2!>)!!pp! | %35
w: Dö och bliv till|liv! *|Dö och bliv till|
w: |||
 !fermata!A8 |] %36
w: liv!|
w: |
V:4
!p! A,3 E, A,3 E, |!<(! A,2!<)! A,2!>(! (A,3 ^G,)!>)! |!<(! A,2 A,!<)!A, C,2 (B,,C,) | %3
w: 1.Sil- ver- vitt i|rym- den blå *|sak- ta ett strö- moln *|
w: 2.Mol- net lyss ej|till min bön, *|skif- tar sin hamn och *|
 D,4!>)!!>(! D,4 | D3 A, D3 A, |!<(! D2!<)! ^G,2!>(! A,2 A,2!>)! | %6
w: sim- mar|högt upp ö- ver|jor- dens jäkt och|
w: svin- ner.|Snart är gång- en|all dess glans och|
!p!!<(! A,2 A,A,!<)!!f! G,3!>(! G,!>)! |!p! ^F,4!pp! =F,4 |!p! E,2"^cresc." E,E, B,3!<(! B, | %9
w: var- da- gens grå- a|tim- mar.|Än i min själ en|
w: ing- en dess rum mer|fin- ner.|Kan- ske det föll som|
 D2 D2!<)!!f! B,4 |!mf! A,2 ^G,A, B,3!>(! A,!>)! |!mf!!>(! E,4 E,4!>)! | %12
w: lyc- ko- dröm|drö- jer från ung- a|da- gar,|
w: luft- sval gråt|ned på en sko- gens|tu- va,|
!p!!<(! F,2 G,F, E,2 (G,!<)!E,) |!mf!!<(! _E,2 E,2!<)!!f!!>(! D,3 D,!>)! | %14
w: stil- la och klar, fast- *|än mitt liv allt|
w: dracks av en rot och *|sväl- ler snart som|
!p!!<(! G,2 G,G,!<)! F,3!>(! F,!>)! |!p!!>(! E,4!>)!!pp! E,4 |!p! C3 G, C3 G, | %17
w: mer föl- jer stri- dens|la- gar.|Lju- sa, vack- ra|
w: saft i ett blå- bärs|dru- va.|Lju- sa, vack- ra|
!<(! C2!<)! F,2!>(! G,4!>)! | A,3 E, A,3 E, |!<(! A,2!<)! D,2!>(! E,4!>)! | %20
w: som- mar- sky!|Var ej allt för|snar att fly|
w: som- mar- sky!|Hell- re än med|vin- den fly|
!p!!>(! ^C,3 C, =C,2 C,2!>)! |!pp!!>(! !courtesy!=F,8!>)!!ppp! |!mf! C,3 G,, C,3 G,, | %23
w: från min him- mels|rund!|Lju- sa vack- ra|
w: dig åt jor- den|giv!|Lju- sa, vack- ra|
 C,2 F,,2!>(! G,,4!>)! |1!mf! A,,3 [E,,E,] A,,3 [E,,E,] |!>(! A,,2 ^D,2 E,4!>)! | %26
w: ung- doms- dröm!|Glid ej bort på|ti- dens ström!|
w: ung- doms- dröm!|||
!p!!>(! F,3 F, B,,2 B,,2!>)! |!mp!!>(! (E,4 D,4)!>)! |!pp!!<(! C,3 C, A,,2!<)!!>(! A,,2!>)! | %29
w: Strå- la än en|stund! *|Strå- la än en|
w: |||
 !fermata![E,,E,]8 :|2!f! D,3 A,, D,3 A,, || D,2 ^G,,2 A,,4 |!mf! B,,3!>(! B,, E,2 E,2!>)! | %33
w: stund!|Svinn men i en|tå- re- ström!|Dö och bliv till|
w: ||||
!mp!!>(! (F,4 E,4)!>)! |!p! D,3"^rit."!>(! D, D,2 D,2!>)!!pp! | !fermata!A,,8 |] %36
w: liv! *|Dö och bliv till|liv!|
w: |||

